X:1
T:Title
%%score { 1 | 2 }
L:1/8
M:3/4
K:Ab
V:1 treble nm="Grand Piano"
V:2 bass 
V:1
 z2 z2[Q:1/4=100] EE | [CA]2 [EA]2 Bc | B2 [CA]2 [EA]B | c3 c c[=DB] |[M:2/4] B4 |[M:1/4] Bc | %6
[M:3/4] d2 d2 cd | e2 c2 [EA][EG] | [DF][Fd] [Ec]2 [DB]2 |[M:2/4] [CA]4 |[M:1/4] [EA][EG] | %11
[M:3/4] [EG]2 [DF]2 [DB][DA] | A2 G2 Bc | d3 d cB |[M:2/4] [Ec]4 |[M:1/4] cd |[M:3/4] c2 B2 Bc | %17
 B2 [CA]2 [EA][EG] | [DF][Fd] [Ec]2 [DB]2 |[M:2/4] [CA]4 |] %20
V:2
 z2 z2 E,E, | [A,,E,]2 [C,A,]2 [E,G,D][E,A,E] | [E,G,D]2 [A,,A,]2 [C,A,][E,G,E] | %3
 [A,E]3 [A,E] [F,A,=D][B,,A,] |[M:2/4] [E,G,E]4 |[M:1/4] [E,G,E][E,A,E] | %6
[M:3/4] [E,B,E]2 [E,B,E]2[K:treble] [A,E][A,B,E] | [A,CA]2[K:bass] [A,E]2 [C,A,][C,A,] | %8
 [D,A,][D,A,] [E,A,]2 [E,G,]2 |[M:2/4] [A,,A,]4 |[M:1/4] [C,A,][C,A,] | %11
[M:3/4] [D,A,]2 [D,A,]2 [B,,B,][B,,B,] | [E,_CE]2 [E,B,E]2 [E,G,E][E,A,E] | %13
 [E,B,E]3 [E,B,E] [E,A,E][E,G,E] |[M:2/4] [A,,A,]4 |[M:1/4][K:treble] [A,E][A,F] | %16
[M:3/4][K:bass] [E,A,E]2 [E,G,E]2 [E,G,D][E,G,E] | [E,G,D]2 [A,,A,]2 [C,A,][C,A,] | %18
 [D,A,][D,A,] [E,A,]2 [E,G,]2 |[M:2/4] [A,,A,]4 |] %20

